; G-Code generated by Simplify3D(R) Version 4.0.1
; Mar 9, 2019 at 9:58:03 AM
; Settings Summary
;   processName,Process1
;   applyToModels,Caixa Med Temp Umid
;   profileName,Ender 3 (modified)
;   profileVersion,2018-06-08 13:27:13
;   baseProfile,Creality CR-10 Mini
;   printMaterial,ABS
;   printQuality,Medium
;   printExtruders,
;   extruderName,Primary Extruder
;   extruderToolheadNumber,0
;   extruderDiameter,0.4
;   extruderAutoWidth,1
;   extruderWidth,0.48
;   extrusionMultiplier,1
;   extruderUseRetract,1
;   extruderRetractionDistance,5
;   extruderExtraRestartDistance,0
;   extruderRetractionZLift,1
;   extruderRetractionSpeed,1800
;   extruderUseCoasting,1
;   extruderCoastingDistance,0.2
;   extruderUseWipe,0
;   extruderWipeDistance,5
;   primaryExtruder,0
;   layerHeight,0.2
;   topSolidLayers,4
;   bottomSolidLayers,4
;   perimeterOutlines,3
;   printPerimetersInsideOut,1
;   startPointOption,3
;   startPointOriginX,0
;   startPointOriginY,110
;   sequentialIslands,0
;   spiralVaseMode,0
;   firstLayerHeightPercentage,95
;   firstLayerWidthPercentage,105
;   firstLayerUnderspeed,0.4
;   useRaft,0
;   raftExtruder,0
;   raftTopLayers,3
;   raftBaseLayers,2
;   raftOffset,3
;   raftSeparationDistance,0.14
;   raftTopInfill,100
;   aboveRaftSpeedMultiplier,0.3
;   useSkirt,1
;   skirtExtruder,0
;   skirtLayers,1
;   skirtOutlines,2
;   skirtOffset,4
;   usePrimePillar,0
;   primePillarExtruder,999
;   primePillarWidth,12
;   primePillarLocation,7
;   primePillarSpeedMultiplier,1
;   useOozeShield,0
;   oozeShieldExtruder,999
;   oozeShieldOffset,2
;   oozeShieldOutlines,1
;   oozeShieldSidewallShape,1
;   oozeShieldSidewallAngle,30
;   oozeShieldSpeedMultiplier,1
;   infillExtruder,0
;   internalInfillPattern,Rectilinear
;   externalInfillPattern,Rectilinear
;   infillPercentage,80
;   outlineOverlapPercentage,15
;   infillExtrusionWidthPercentage,100
;   minInfillLength,5
;   infillLayerInterval,1
;   internalInfillAngles,45,-45
;   overlapInternalInfillAngles,0
;   externalInfillAngles,45,-45
;   generateSupport,1
;   supportExtruder,0
;   supportInfillPercentage,15
;   supportExtraInflation,1
;   supportBaseLayers,2
;   denseSupportExtruder,0
;   denseSupportLayers,2
;   denseSupportInfillPercentage,70
;   supportLayerInterval,1
;   supportHorizontalPartOffset,0.3
;   supportUpperSeparationLayers,1
;   supportLowerSeparationLayers,1
;   supportType,0
;   supportGridSpacing,4
;   maxOverhangAngle,45
;   supportAngles,45
;   temperatureName,Primary Extruder,Heated Bed
;   temperatureNumber,0,0
;   temperatureSetpointCount,1,1
;   temperatureSetpointLayers,1,1
;   temperatureSetpointTemperatures,235,110
;   temperatureStabilizeAtStartup,1,1
;   temperatureHeatedBed,0,1
;   temperatureRelayBetweenLayers,0,0
;   temperatureRelayBetweenLoops,0,0
;   fanLayers,1
;   fanSpeeds,0
;   blipFanToFullPower,0
;   adjustSpeedForCooling,1
;   minSpeedLayerTime,15
;   minCoolingSpeedSlowdown,20
;   increaseFanForCooling,0
;   minFanLayerTime,45
;   maxCoolingFanSpeed,100
;   increaseFanForBridging,0
;   bridgingFanSpeed,100
;   use5D,1
;   relativeEdistances,0
;   allowEaxisZeroing,1
;   independentExtruderAxes,0
;   includeM10123,0
;   stickySupport,1
;   applyToolheadOffsets,0
;   gcodeXoffset,0
;   gcodeYoffset,0
;   gcodeZoffset,0
;   overrideMachineDefinition,1
;   machineTypeOverride,0
;   strokeXoverride,220
;   strokeYoverride,220
;   strokeZoverride,250
;   originOffsetXoverride,0
;   originOffsetYoverride,0
;   originOffsetZoverride,0
;   homeXdirOverride,-1
;   homeYdirOverride,-1
;   homeZdirOverride,-1
;   flipXoverride,1
;   flipYoverride,-1
;   flipZoverride,1
;   toolheadOffsets,0,0|0,0|0,0|0,0|0,0|0,0
;   overrideFirmwareConfiguration,1
;   firmwareTypeOverride,RepRap (Marlin/Repetier/Sprinter)
;   GPXconfigOverride,r2
;   baudRateOverride,115200
;   overridePrinterModels,1
;   printerModelsOverride
;   startingGcode,G28 ; home all axes,G1 Z5 F3000 ; lift,G1 X5 Y10 F1500 ; move to prime,G1 Z0.2 F3000 ; get ready to prime,G92 E0 ; reset extrusion distance,G1 Y80 E10 F600 ; prime nozzle,G1 Y100 F5000 ; quick wipe
;   layerChangeGcode,
;   retractionGcode,
;   toolChangeGcode,
;   endingGcode,G28 X0 ; home x axis,M106 S0 ; turn off cooling fan,M104 S0 ; turn off extruder,M140 S0 ; turn off bed,M84 ; disable motors
;   exportFileFormat,gcode
;   celebration,0
;   celebrationSong,Funky Town
;   postProcessing,
;   defaultSpeed,3600
;   outlineUnderspeed,0.5
;   solidInfillUnderspeed,0.8
;   supportUnderspeed,0.8
;   rapidXYspeed,4800
;   rapidZspeed,1002
;   minBridgingArea,50
;   bridgingExtraInflation,0
;   bridgingExtrusionMultiplier,1
;   bridgingSpeedMultiplier,1
;   useFixedBridgingAngle,0
;   fixedBridgingAngle,0
;   applyBridgingToPerimeters,0
;   filamentDiameters,1.75|1.75|1.75|1.75|1.75|1.75
;   filamentPricesPerKg,46|46|46|46|46|46
;   filamentDensities,1.25|1.25|1.25|1.25|1.25|1.25
;   useMinPrintHeight,0
;   minPrintHeight,0
;   useMaxPrintHeight,0
;   maxPrintHeight,0
;   useDiaphragm,0
;   diaphragmLayerInterval,20
;   robustSlicing,1
;   mergeAllIntoSolid,0
;   onlyRetractWhenCrossingOutline,1
;   retractBetweenLayers,1
;   useRetractionMinTravel,0
;   retractionMinTravel,3
;   retractWhileWiping,0
;   onlyWipeOutlines,1
;   avoidCrossingOutline,0
;   maxMovementDetourFactor,3
;   toolChangeRetractionDistance,12
;   toolChangeExtraRestartDistance,-0.5
;   toolChangeRetractionSpeed,600
;   externalThinWallType,0
;   internalThinWallType,2
;   thinWallAllowedOverlapPercentage,10
;   singleExtrusionMinLength,1
;   singleExtrusionMinPrintingWidthPercentage,50
;   singleExtrusionMaxPrintingWidthPercentage,200
;   singleExtrusionEndpointExtension,0.2
;   horizontalSizeCompensation,0
G90
M82
M106 S0
M140 S110
M190 S110
M104 S235 T0
M109 S235 T0
G28 ; home all axes
G1 Z5 F3000 ; lift
G1 X5 Y10 F1500 ; move to prime
G1 Z0.2 F3000 ; get ready to prime
G92 E0 ; reset extrusion distance
G1 Y80 E10 F600 ; prime nozzle
G1 Y100 F5000 ; quick wipe
G92 E0
G1 E-5.0000 F1800
G1 Z1.190 F1002
; process Process1
; layer 1, Z = 0.190
T0
; tool H0.200 W0.504
; skirt
G1 X57.753 Y77.207 F4800
G1 Z0.190 F1002
G1 E0.0000 F540
G92 E0
G1 X58.017 Y77.098 E0.0120 F1440
G1 X161.983 Y77.098 E4.3689
G1 X162.247 Y77.207 E4.3810
G1 X164.793 Y79.753 E4.5318
G1 X164.902 Y80.017 E4.5438
G1 X164.902 Y139.983 E7.0568
G1 X164.793 Y140.247 E7.0688
G1 X162.247 Y142.793 E7.2197
G1 X161.983 Y142.902 E7.2317
G1 X58.017 Y142.902 E11.5887
G1 X57.753 Y142.793 E11.6007
G1 X55.207 Y140.247 E11.7515
G1 X55.098 Y139.983 E11.7635
G1 X55.098 Y80.017 E14.2765
G1 X55.207 Y79.753 E14.2885
G1 X57.611 Y77.349 E14.4310
G1 X57.753 Y77.207 F1440
G1 X58.025 Y77.614 F4800
G92 E0
G1 X58.113 Y77.578 E0.0040 F1440
G1 X161.887 Y77.578 E4.3529
G1 X161.975 Y77.614 E4.3569
G1 X164.386 Y80.025 E4.4998
G1 X164.422 Y80.113 E4.5038
G1 X164.422 Y139.887 E7.0088
G1 X164.386 Y139.975 E7.0128
G1 X161.975 Y142.386 E7.1557
G1 X161.887 Y142.422 E7.1597
G1 X58.113 Y142.422 E11.5086
G1 X58.025 Y142.386 E11.5126
G1 X55.614 Y139.975 E11.6555
G1 X55.578 Y139.887 E11.6595
G1 X55.578 Y80.113 E14.1645
G1 X55.614 Y80.025 E14.1685
G1 X57.883 Y77.755 E14.3030
G1 X58.025 Y77.614 F1440
G92 E0
G1 E-5.0000 F1800
G1 Z1.190 F1002
; inner perimeter
G1 X61.078 Y111.077 F4800
G1 Z0.190 F1002
G1 E0.0000 F1800
G92 E0
G1 X61.443 Y111.005 E0.0156 F1080
G1 X61.600 Y111.385 E0.0329
G1 X62.041 Y111.959 E0.0632
G1 X62.615 Y112.400 E0.0935
G1 X63.283 Y112.676 E0.1238
G1 X64.000 Y112.771 E0.1541
G1 X64.717 Y112.676 E0.1844
G1 X65.385 Y112.400 E0.2148
G1 X65.959 Y111.959 E0.2451
G1 X66.400 Y111.385 E0.2754
G1 X66.676 Y110.717 E0.3057
G1 X66.771 Y110.000 E0.3360
G1 X66.676 Y109.283 E0.3663
G1 X66.400 Y108.615 E0.3966
G1 X65.959 Y108.041 E0.4269
G1 X65.385 Y107.600 E0.4573
G1 X64.717 Y107.324 E0.4876
G1 X64.000 Y107.229 E0.5179
G1 X63.283 Y107.324 E0.5482
G1 X62.615 Y107.600 E0.5785
G1 X62.041 Y108.041 E0.6088
G1 X61.600 Y108.615 E0.6391
G1 X61.443 Y108.995 E0.6564
G1 X61.078 Y108.923 E0.6720
G1 X61.078 Y83.078 E1.7551
G1 X158.922 Y83.078 E5.8556
G1 X158.922 Y108.923 E6.9387
G1 X158.557 Y108.995 E6.9543
G1 X158.400 Y108.615 E6.9716
G1 X157.959 Y108.041 E7.0019
G1 X157.385 Y107.600 E7.0322
G1 X156.717 Y107.324 E7.0625
G1 X156.000 Y107.229 E7.0928
G1 X155.283 Y107.324 E7.1231
G1 X154.615 Y107.600 E7.1535
G1 X154.041 Y108.041 E7.1838
G1 X153.600 Y108.615 E7.2141
G1 X153.324 Y109.283 E7.2444
G1 X153.229 Y110.000 E7.2747
G1 X153.324 Y110.717 E7.3050
G1 X153.600 Y111.385 E7.3353
G1 X154.041 Y111.959 E7.3657
G1 X154.615 Y112.400 E7.3960
G1 X155.283 Y112.676 E7.4263
G1 X156.000 Y112.771 E7.4566
G1 X156.717 Y112.676 E7.4869
G1 X157.385 Y112.400 E7.5172
G1 X157.959 Y111.959 E7.5475
G1 X158.400 Y111.385 E7.5779
G1 X158.557 Y111.005 E7.5951
G1 X158.922 Y111.077 E7.6107
G1 X158.922 Y136.922 E8.6938
G1 X61.078 Y136.922 E12.7943
G1 X61.078 Y111.277 E13.8690
G1 X61.078 Y111.077 F1080
G1 X60.574 Y137.426 F4800
G92 E0
G1 X60.574 Y82.574 E2.2988 F1080
G1 X159.426 Y82.574 E6.4415
G1 X159.426 Y137.426 E8.7402
G1 X60.774 Y137.426 E12.8746
G1 X60.574 Y137.426 F1080
; outer perimeter
G1 X60.070 Y137.930 F4800
G92 E0
G1 X60.070 Y82.070 E2.3410 F720
G1 X159.930 Y82.070 E6.5260
G1 X159.930 Y137.930 E8.8670
G1 X60.270 Y137.930 E13.0435
G1 X60.070 Y137.930 F720
; inner perimeter
G1 X71.322 Y126.678 F4800
G92 E0
G1 X148.678 Y126.678 E3.2418 F1080
G1 X148.678 Y93.322 E4.6396
G1 X71.322 Y93.322 E7.8814
G1 X71.322 Y126.478 E9.2708
G1 X71.322 Y126.678 F1080
G1 X71.826 Y126.174 F4800
G92 E0
G1 X148.174 Y126.174 E3.1995 F1080
G1 X148.174 Y93.826 E4.5551
G1 X71.826 Y93.826 E7.7547
G1 X71.826 Y125.974 E9.1019
G1 X71.826 Y126.174 F1080
; outer perimeter
G1 X72.330 Y125.670 F4800
G92 E0
G1 X147.670 Y125.670 E3.1573 F720
G1 X147.670 Y94.330 E4.4706
G1 X72.330 Y94.330 E7.6279
G1 X72.330 Y125.470 E8.9329
G1 X72.330 Y125.670 F720
; inner perimeter
G1 X61.737 Y110.000 F4800
G92 E0
G1 X61.815 Y110.586 E0.0248 F1080
G1 X62.041 Y111.131 E0.0495
G1 X62.400 Y111.600 E0.0743
G1 X62.869 Y111.959 E0.0990
G1 X63.414 Y112.185 E0.1238
G1 X64.000 Y112.263 E0.1485
G1 X64.586 Y112.185 E0.1733
G1 X65.131 Y111.959 E0.1980
G1 X65.600 Y111.600 E0.2228
G1 X65.959 Y111.131 E0.2475
G1 X66.185 Y110.586 E0.2723
G1 X66.263 Y110.000 E0.2970
G1 X66.185 Y109.414 E0.3218
G1 X65.959 Y108.869 E0.3465
G1 X65.600 Y108.400 E0.3713
G1 X65.131 Y108.041 E0.3960
G1 X64.586 Y107.815 E0.4208
G1 X64.000 Y107.737 E0.4455
G1 X63.414 Y107.815 E0.4703
G1 X62.869 Y108.041 E0.4950
G1 X62.400 Y108.400 E0.5198
G1 X62.041 Y108.869 E0.5446
G1 X61.815 Y109.414 E0.5693
G1 X61.764 Y109.802 E0.5857
G1 X61.737 Y110.000 F1080
; outer perimeter
G1 X62.246 Y110.000 F4800
G92 E0
G1 X62.306 Y110.454 E0.0192 F720
G1 X62.481 Y110.877 E0.0384
G1 X62.760 Y111.240 E0.0576
G1 X63.123 Y111.519 E0.0768
G1 X63.546 Y111.694 E0.0960
G1 X64.000 Y111.754 E0.1151
G1 X64.454 Y111.694 E0.1343
G1 X64.877 Y111.519 E0.1535
G1 X65.240 Y111.240 E0.1727
G1 X65.519 Y110.877 E0.1919
G1 X65.694 Y110.454 E0.2111
G1 X65.754 Y110.000 E0.2303
G1 X65.694 Y109.546 E0.2495
G1 X65.519 Y109.123 E0.2687
G1 X65.240 Y108.760 E0.2879
G1 X64.877 Y108.481 E0.3071
G1 X64.454 Y108.306 E0.3262
G1 X64.000 Y108.246 E0.3454
G1 X63.546 Y108.306 E0.3646
G1 X63.123 Y108.481 E0.3838
G1 X62.760 Y108.760 E0.4030
G1 X62.481 Y109.123 E0.4222
G1 X62.306 Y109.546 E0.4414
G1 X62.272 Y109.802 E0.4522
G1 X62.246 Y110.000 F720
G92 E0
G1 E-5.0000 F1800
G1 Z1.190 F1002
; inner perimeter
G1 X153.737 Y110.000 F4800
G1 Z0.190 F1002
G1 E0.0000 F1800
G92 E0
G1 X153.815 Y110.586 E0.0248 F1080
G1 X154.041 Y111.131 E0.0495
G1 X154.400 Y111.600 E0.0743
G1 X154.869 Y111.959 E0.0990
G1 X155.414 Y112.185 E0.1238
G1 X156.000 Y112.263 E0.1485
G1 X156.586 Y112.185 E0.1733
G1 X157.131 Y111.959 E0.1980
G1 X157.600 Y111.600 E0.2228
G1 X157.959 Y111.131 E0.2475
G1 X158.185 Y110.586 E0.2723
G1 X158.263 Y110.000 E0.2970
G1 X158.185 Y109.414 E0.3218
G1 X157.959 Y108.869 E0.3465
G1 X157.600 Y108.400 E0.3713
G1 X157.131 Y108.041 E0.3960
G1 X156.586 Y107.815 E0.4208
G1 X156.000 Y107.737 E0.4455
G1 X155.414 Y107.815 E0.4703
G1 X154.869 Y108.041 E0.4950
G1 X154.400 Y108.400 E0.5198
G1 X154.041 Y108.869 E0.5446
G1 X153.815 Y109.414 E0.5693
G1 X153.764 Y109.802 E0.5857
G1 X153.737 Y110.000 F1080
; outer perimeter
G1 X154.246 Y110.000 F4800
G92 E0
G1 X154.306 Y110.454 E0.0192 F720
G1 X154.481 Y110.877 E0.0384
G1 X154.760 Y111.240 E0.0576
G1 X155.123 Y111.519 E0.0768
G1 X155.546 Y111.694 E0.0960
G1 X156.000 Y111.754 E0.1151
G1 X156.454 Y111.694 E0.1343
G1 X156.877 Y111.519 E0.1535
G1 X157.240 Y111.240 E0.1727
G1 X157.519 Y110.877 E0.1919
G1 X157.694 Y110.454 E0.2111
G1 X157.754 Y110.000 E0.2303
G1 X157.694 Y109.546 E0.2495
G1 X157.519 Y109.123 E0.2687
G1 X157.240 Y108.760 E0.2879
G1 X156.877 Y108.481 E0.3071
G1 X156.454 Y108.306 E0.3262
G1 X156.000 Y108.246 E0.3454
G1 X155.546 Y108.306 E0.3646
G1 X155.123 Y108.481 E0.3838
G1 X154.760 Y108.760 E0.4030
G1 X154.481 Y109.123 E0.4222
G1 X154.306 Y109.546 E0.4414
G1 X154.272 Y109.802 E0.4522
G1 X154.246 Y110.000 F720
G92 E0
G1 E-5.0000 F1800
G1 Z1.190 F1002
; gap fill
G1 X158.627 Y109.446 F4800
G1 Z0.190 F1002
G1 E0.0000 F1800
G92 E0
G1 X158.993 Y109.812 E0.0217 F1152
G1 X158.993 Y110.525 E0.0516
G1 X158.814 Y110.346 E0.0622
G1 X158.673 Y110.205 F1152
G92 E0
G1 E-5.0000 F1800
G1 Z1.190 F1002
G1 X61.007 Y110.188 F4800
G1 Z0.190 F1002
G1 E0.0000 F1800
G92 E0
G1 X61.373 Y110.554 E0.0217 F1152
G1 X61.300 Y110.000 E0.0451
G1 X61.327 Y109.795 E0.0538
G1 X61.148 Y109.616 E0.0644
G1 X61.007 Y109.475 F1152
; solid layer
G1 X61.592 Y107.922 F4800
G92 E0
G1 X61.506 Y107.836 E0.0051 F1152
G1 X61.506 Y107.123 E0.0350
G1 X61.952 Y107.569 E0.0614
G1 X62.355 Y107.259 E0.0827
G1 X61.506 Y106.410 E0.1330
G1 X61.506 Y105.697 E0.1629
G1 X62.848 Y107.040 E0.2425
G1 X63.171 Y106.906 E0.2571
G1 X63.398 Y106.876 E0.2667
G1 X61.506 Y104.985 E0.3788
G1 X61.506 Y104.272 E0.4087
G1 X64.036 Y106.802 E0.5586
G1 X64.829 Y106.906 E0.5922
G1 X64.870 Y106.923 E0.5940
G1 X61.506 Y103.559 E0.7934
G1 X61.506 Y102.846 E0.8233
G1 X70.894 Y112.234 E1.3797
G1 X70.894 Y111.522 E1.4096
G1 X61.506 Y102.133 E1.9660
G1 X61.506 Y101.421 E1.9958
G1 X70.894 Y110.809 E2.5522
G1 X70.894 Y110.096 E2.5821
G1 X61.506 Y100.708 E3.1385
G1 X61.506 Y99.995 E3.1684
G1 X70.894 Y109.383 E3.7248
G1 X70.894 Y108.671 E3.7546
G1 X61.506 Y99.282 E4.3110
G1 X61.506 Y98.570 E4.3409
G1 X70.894 Y107.958 E4.8973
G1 X70.894 Y107.245 E4.9272
G1 X61.506 Y97.857 E5.4836
G1 X61.506 Y97.144 E5.5135
G1 X70.894 Y106.532 E6.0699
G1 X70.894 Y105.819 E6.0997
G1 X61.506 Y96.431 E6.6561
G1 X61.506 Y95.719 E6.6860
G1 X70.894 Y105.107 E7.2424
G1 X70.894 Y104.394 E7.2723
G1 X61.506 Y95.006 E7.8287
G1 X61.506 Y94.293 E7.8585
G1 X70.894 Y103.681 E8.4150
G1 X70.894 Y102.968 E8.4448
G1 X61.506 Y93.580 E9.0012
G1 X61.506 Y92.868 E9.0311
G1 X70.894 Y102.256 E9.5875
G1 X70.894 Y101.543 E9.6174
G1 X61.506 Y92.155 E10.1738
G1 X61.506 Y91.442 E10.2036
G1 X70.894 Y100.830 E10.7600
G1 X70.894 Y100.117 E10.7899
G1 X61.506 Y90.729 E11.3463
G1 X61.506 Y90.016 E11.3762
G1 X70.894 Y99.405 E11.9326
G1 X70.894 Y98.692 E11.9625
G1 X61.506 Y89.304 E12.5189
G1 X61.506 Y88.591 E12.5487
G1 X70.894 Y97.979 E13.1051
G1 X70.894 Y97.266 E13.1350
G1 X61.506 Y87.878 E13.6914
G1 X61.506 Y87.165 E13.7213
G1 X70.894 Y96.554 E14.2777
G1 X70.894 Y95.841 E14.3075
G1 X61.506 Y86.453 E14.8639
G1 X61.506 Y85.740 E14.8938
G1 X70.894 Y95.128 E15.4502
G1 X70.894 Y94.415 E15.4801
G1 X61.506 Y85.027 E16.0365
G1 X61.506 Y84.314 E16.0664
G1 X70.894 Y93.702 E16.6228
G1 X70.894 Y92.990 E16.6526
G1 X61.506 Y83.602 E17.2090
G1 X61.506 Y83.506 E17.2130
G1 X62.123 Y83.506 E17.2389
G1 X71.511 Y92.894 E17.7953
G1 X72.224 Y92.894 E17.8252
G1 X62.836 Y83.506 E18.3816
G1 X63.549 Y83.506 E18.4115
G1 X72.937 Y92.894 E18.9679
G1 X73.649 Y92.894 E18.9977
G1 X64.261 Y83.506 E19.5541
G1 X64.974 Y83.506 E19.5840
G1 X74.362 Y92.894 E20.1404
G1 X75.075 Y92.894 E20.1703
G1 X65.687 Y83.506 E20.7267
G1 X66.400 Y83.506 E20.7565
G1 X75.788 Y92.894 E21.3129
G1 X76.501 Y92.894 E21.3428
G1 X67.112 Y83.506 E21.8992
G1 X67.825 Y83.506 E21.9291
G1 X77.213 Y92.894 E22.4855
