; G-Code generated by Simplify3D(R) Version 4.0.1
; Mar 10, 2019 at 3:31:51 PM
; Settings Summary
;   processName,Process1
;   applyToModels,Caixa Med Temp Umid 2
;   profileName,Ender 3 (modified)
;   profileVersion,2018-06-08 13:27:13
;   baseProfile,Creality CR-10 Mini
;   printMaterial,ABS
;   printQuality,Medium
;   printExtruders,
;   extruderName,Primary Extruder
;   extruderToolheadNumber,0
;   extruderDiameter,0.4
;   extruderAutoWidth,1
;   extruderWidth,0.48
;   extrusionMultiplier,1
;   extruderUseRetract,1
;   extruderRetractionDistance,5
;   extruderExtraRestartDistance,0
;   extruderRetractionZLift,1
;   extruderRetractionSpeed,1800
;   extruderUseCoasting,1
;   extruderCoastingDistance,0.2
;   extruderUseWipe,0
;   extruderWipeDistance,5
;   primaryExtruder,0
;   layerHeight,0.2
;   topSolidLayers,4
;   bottomSolidLayers,4
;   perimeterOutlines,3
;   printPerimetersInsideOut,1
;   startPointOption,3
;   startPointOriginX,0
;   startPointOriginY,110
;   sequentialIslands,0
;   spiralVaseMode,0
;   firstLayerHeightPercentage,95
;   firstLayerWidthPercentage,105
;   firstLayerUnderspeed,0.4
;   useRaft,0
;   raftExtruder,0
;   raftTopLayers,3
;   raftBaseLayers,2
;   raftOffset,3
;   raftSeparationDistance,0.14
;   raftTopInfill,100
;   aboveRaftSpeedMultiplier,0.3
;   useSkirt,1
;   skirtExtruder,0
;   skirtLayers,1
;   skirtOutlines,10
;   skirtOffset,0
;   usePrimePillar,0
;   primePillarExtruder,999
;   primePillarWidth,12
;   primePillarLocation,7
;   primePillarSpeedMultiplier,1
;   useOozeShield,0
;   oozeShieldExtruder,999
;   oozeShieldOffset,2
;   oozeShieldOutlines,1
;   oozeShieldSidewallShape,1
;   oozeShieldSidewallAngle,30
;   oozeShieldSpeedMultiplier,1
;   infillExtruder,0
;   internalInfillPattern,Rectilinear
;   externalInfillPattern,Rectilinear
;   infillPercentage,20
;   outlineOverlapPercentage,15
;   infillExtrusionWidthPercentage,100
;   minInfillLength,5
;   infillLayerInterval,1
;   internalInfillAngles,45,-45
;   overlapInternalInfillAngles,0
;   externalInfillAngles,45,-45
;   generateSupport,1
;   supportExtruder,0
;   supportInfillPercentage,15
;   supportExtraInflation,1
;   supportBaseLayers,2
;   denseSupportExtruder,0
;   denseSupportLayers,2
;   denseSupportInfillPercentage,70
;   supportLayerInterval,1
;   supportHorizontalPartOffset,0.3
;   supportUpperSeparationLayers,1
;   supportLowerSeparationLayers,1
;   supportType,0
;   supportGridSpacing,4
;   maxOverhangAngle,45
;   supportAngles,45
;   temperatureName,Primary Extruder,Heated Bed
;   temperatureNumber,0,0
;   temperatureSetpointCount,1,1
;   temperatureSetpointLayers,1,1
;   temperatureSetpointTemperatures,235,115
;   temperatureStabilizeAtStartup,1,1
;   temperatureHeatedBed,0,1
;   temperatureRelayBetweenLayers,0,0
;   temperatureRelayBetweenLoops,0,0
;   fanLayers,1
;   fanSpeeds,0
;   blipFanToFullPower,0
;   adjustSpeedForCooling,1
;   minSpeedLayerTime,15
;   minCoolingSpeedSlowdown,20
;   increaseFanForCooling,0
;   minFanLayerTime,45
;   maxCoolingFanSpeed,100
;   increaseFanForBridging,0
;   bridgingFanSpeed,100
;   use5D,1
;   relativeEdistances,0
;   allowEaxisZeroing,1
;   independentExtruderAxes,0
;   includeM10123,0
;   stickySupport,1
;   applyToolheadOffsets,0
;   gcodeXoffset,0
;   gcodeYoffset,0
;   gcodeZoffset,0
;   overrideMachineDefinition,1
;   machineTypeOverride,0
;   strokeXoverride,220
;   strokeYoverride,220
;   strokeZoverride,250
;   originOffsetXoverride,0
;   originOffsetYoverride,0
;   originOffsetZoverride,0
;   homeXdirOverride,-1
;   homeYdirOverride,-1
;   homeZdirOverride,-1
;   flipXoverride,1
;   flipYoverride,-1
;   flipZoverride,1
;   toolheadOffsets,0,0|0,0|0,0|0,0|0,0|0,0
;   overrideFirmwareConfiguration,1
;   firmwareTypeOverride,RepRap (Marlin/Repetier/Sprinter)
;   GPXconfigOverride,r2
;   baudRateOverride,115200
;   overridePrinterModels,1
;   printerModelsOverride
;   startingGcode,G28 ; home all axes,G1 Z5 F3000 ; lift,G1 X5 Y10 F1500 ; move to prime,G1 Z0.2 F3000 ; get ready to prime,G92 E0 ; reset extrusion distance,G1 Y80 E10 F600 ; prime nozzle,G1 Y100 F5000 ; quick wipe
;   layerChangeGcode,
;   retractionGcode,
;   toolChangeGcode,
;   endingGcode,G28 X0 ; home x axis,M106 S0 ; turn off cooling fan,M104 S0 ; turn off extruder,M140 S0 ; turn off bed,M84 ; disable motors
;   exportFileFormat,gcode
;   celebration,0
;   celebrationSong,Funky Town
;   postProcessing,
;   defaultSpeed,3600
;   outlineUnderspeed,0.5
;   solidInfillUnderspeed,0.8
;   supportUnderspeed,0.8
;   rapidXYspeed,4800
;   rapidZspeed,1002
;   minBridgingArea,50
;   bridgingExtraInflation,0
;   bridgingExtrusionMultiplier,1
;   bridgingSpeedMultiplier,1
;   useFixedBridgingAngle,0
;   fixedBridgingAngle,0
;   applyBridgingToPerimeters,0
;   filamentDiameters,1.75|1.75|1.75|1.75|1.75|1.75
;   filamentPricesPerKg,46|46|46|46|46|46
;   filamentDensities,1.25|1.25|1.25|1.25|1.25|1.25
;   useMinPrintHeight,0
;   minPrintHeight,0
;   useMaxPrintHeight,0
;   maxPrintHeight,0
;   useDiaphragm,0
;   diaphragmLayerInterval,20
;   robustSlicing,1
;   mergeAllIntoSolid,0
;   onlyRetractWhenCrossingOutline,1
;   retractBetweenLayers,1
;   useRetractionMinTravel,0
;   retractionMinTravel,3
;   retractWhileWiping,0
;   onlyWipeOutlines,1
;   avoidCrossingOutline,0
;   maxMovementDetourFactor,3
;   toolChangeRetractionDistance,12
;   toolChangeExtraRestartDistance,-0.5
;   toolChangeRetractionSpeed,600
;   externalThinWallType,0
;   internalThinWallType,2
;   thinWallAllowedOverlapPercentage,10
;   singleExtrusionMinLength,1
;   singleExtrusionMinPrintingWidthPercentage,50
;   singleExtrusionMaxPrintingWidthPercentage,200
;   singleExtrusionEndpointExtension,0.2
;   horizontalSizeCompensation,0
G90
M82
M106 S0
M140 S115
M190 S115
M104 S235 T0
M109 S235 T0
G28 ; home all axes
G1 Z5 F3000 ; lift
G1 X5 Y10 F1500 ; move to prime
G1 Z0.2 F3000 ; get ready to prime
G92 E0 ; reset extrusion distance
G1 Y80 E10 F600 ; prime nozzle
G1 Y100 F5000 ; quick wipe
G92 E0
G1 E-5.0000 F1800
G1 Z1.190 F1002
; process Process1
; layer 1, Z = 0.190
T0
; tool H0.200 W0.504
; skirt
G1 X58.111 Y77.440 F4800
G1 Z0.190 F1002
G1 E0.0000 F540
G92 E0
G1 X161.889 Y77.440 E4.3491 F1440
G1 X164.560 Y80.111 E4.5074
G1 X164.560 Y139.889 E7.0125
G1 X161.889 Y142.560 E7.1709
G1 X160.329 Y142.560 E7.2362
G1 X159.109 Y143.780 E7.3085
G1 X56.891 Y143.780 E11.5923
G1 X54.220 Y141.109 E11.7506
G1 X54.220 Y130.891 E12.1788
G1 X55.440 Y129.671 E12.2511
G1 X55.440 Y80.111 E14.3280
G1 X57.970 Y77.581 E14.4779
G1 X58.111 Y77.440 F1440
G1 X58.310 Y77.920 F4800
G92 E0
G1 X161.690 Y77.920 E4.3324 F1440
G1 X164.080 Y80.310 E4.4741
G1 X164.080 Y139.690 E6.9626
G1 X161.690 Y142.080 E7.1042
G1 X160.130 Y142.080 E7.1696
G1 X158.910 Y143.300 E7.2419
G1 X57.090 Y143.300 E11.5089
G1 X54.700 Y140.910 E11.6506
G1 X54.700 Y131.090 E12.0621
G1 X55.920 Y129.870 E12.1344
G1 X55.920 Y80.310 E14.2114
G1 X58.169 Y78.061 E14.3446
G1 X58.310 Y77.920 F1440
G1 X58.509 Y78.400 F4800
G92 E0
G1 X161.491 Y78.400 E4.3158 F1440
G1 X163.600 Y80.509 E4.4407
G1 X163.600 Y139.491 E6.9126
G1 X161.491 Y141.600 E7.0375
G1 X159.931 Y141.600 E7.1029
G1 X158.711 Y142.820 E7.1752
G1 X57.289 Y142.820 E11.4256
G1 X55.180 Y140.711 E11.5506
G1 X55.180 Y131.289 E11.9455
G1 X56.400 Y130.069 E12.0178
G1 X56.400 Y80.509 E14.0947
G1 X58.367 Y78.541 E14.2113
G1 X58.509 Y78.400 F1440
G1 X58.708 Y78.880 F4800
G92 E0
G1 X161.292 Y78.880 E4.2991 F1440
G1 X163.120 Y80.708 E4.4074
G1 X163.120 Y139.292 E6.8626
G1 X161.292 Y141.120 E6.9709
G1 X159.732 Y141.120 E7.0363
G1 X158.512 Y142.340 E7.1086
G1 X57.488 Y142.340 E11.3423
G1 X55.660 Y140.512 E11.4506
G1 X55.660 Y131.488 E11.8288
G1 X56.880 Y130.268 E11.9011
G1 X56.880 Y80.708 E13.9781
G1 X58.566 Y79.021 E14.0780
G1 X58.708 Y78.880 F1440
G1 X58.906 Y79.360 F4800
G92 E0
G1 X161.094 Y79.360 E4.2824 F1440
G1 X162.640 Y80.906 E4.3741
G1 X162.640 Y139.094 E6.8126
G1 X161.094 Y140.640 E6.9042
G1 X159.534 Y140.640 E6.9696
G1 X158.314 Y141.860 E7.0419
G1 X57.687 Y141.860 E11.2590
G1 X56.140 Y140.314 E11.3506
G1 X56.140 Y131.686 E11.7122
G1 X57.360 Y130.466 E11.7845
G1 X57.360 Y80.906 E13.8614
G1 X58.765 Y79.501 E13.9447
G1 X58.906 Y79.360 F1440
G1 X59.105 Y79.840 F4800
G92 E0
G1 X160.895 Y79.840 E4.2658 F1440
G1 X162.160 Y81.105 E4.3408
G1 X162.160 Y138.895 E6.7626
G1 X160.895 Y140.160 E6.8376
G1 X159.335 Y140.160 E6.9029
G1 X158.115 Y141.380 E6.9753
G1 X57.885 Y141.380 E11.1756
G1 X56.620 Y140.115 E11.2506
G1 X56.620 Y131.885 E11.5955
G1 X57.840 Y130.665 E11.6678
G1 X57.840 Y81.105 E13.7448
G1 X58.964 Y79.981 E13.8114
G1 X59.105 Y79.840 F1440
G1 X59.304 Y80.320 F4800
G92 E0
G1 X160.696 Y80.320 E4.2491 F1440
G1 X161.680 Y81.304 E4.3074
G1 X161.680 Y138.696 E6.7126
G1 X160.696 Y139.680 E6.7709
G1 X158.900 Y139.680 E6.8462
G1 X158.900 Y139.916 E6.8561
G1 X157.916 Y140.900 E6.9144
G1 X58.084 Y140.900 E11.0981
G1 X57.100 Y139.916 E11.1564
G1 X57.100 Y132.084 E11.4846
G1 X58.084 Y131.100 E11.5430
G1 X58.320 Y131.100 E11.5529
G1 X58.320 Y81.304 E13.6397
G1 X59.163 Y80.461 E13.6896
G1 X59.304 Y80.320 F1440
G1 X59.503 Y80.800 F4800
G92 E0
G1 X160.497 Y80.800 E4.2324 F1440
G1 X161.200 Y81.503 E4.2741
G1 X161.200 Y138.497 E6.6626
G1 X160.497 Y139.200 E6.7043
G1 X158.420 Y139.200 E6.7913
G1 X158.420 Y139.717 E6.8130
G1 X157.717 Y140.420 E6.8546
G1 X58.283 Y140.420 E11.0217
G1 X57.580 Y139.717 E11.0634
G1 X57.580 Y132.283 E11.3749
G1 X58.283 Y131.580 E11.4166
G1 X58.800 Y131.580 E11.4382
G1 X58.800 Y81.503 E13.5368
G1 X59.362 Y80.941 E13.5701
G1 X59.503 Y80.800 F1440
G1 X59.702 Y81.280 F4800
G92 E0
G1 X160.298 Y81.280 E4.2158 F1440
G1 X160.720 Y81.702 E4.2408
G1 X160.720 Y138.298 E6.6126
G1 X160.298 Y138.720 E6.6376
G1 X157.940 Y138.720 E6.7364
G1 X157.940 Y139.518 E6.7699
G1 X157.518 Y139.940 E6.7949
G1 X58.482 Y139.940 E10.9453
G1 X58.060 Y139.518 E10.9703
G1 X58.060 Y132.482 E11.2652
G1 X58.482 Y132.060 E11.2901
G1 X59.280 Y132.060 E11.3236
G1 X59.280 Y81.702 E13.4340
G1 X59.560 Y81.421 E13.4506
G1 X59.702 Y81.280 F1440
G1 X59.901 Y81.760 F4800
G92 E0
G1 X160.099 Y81.760 E4.1991 F1440
G1 X160.240 Y81.901 E4.2074
G1 X160.240 Y138.099 E6.5626
G1 X160.099 Y138.240 E6.5709
G1 X157.460 Y138.240 E6.6816
G1 X157.460 Y139.319 E6.7268
G1 X157.319 Y139.460 E6.7351
G1 X58.681 Y139.460 E10.8689
G1 X58.540 Y139.319 E10.8772
G1 X58.540 Y132.681 E11.1554
G1 X58.681 Y132.540 E11.1637
G1 X59.760 Y132.540 E11.2090
G1 X59.760 Y81.902 E13.3311
G1 X59.760 Y81.901 F1440
G1 X59.901 Y81.760 F1440
G92 E0
G1 E-5.0000 F1800
G1 Z1.190 F1002
; inner perimeter
G1 X61.260 Y83.260 F4800
G1 Z0.190 F1002
G1 E0.0000 F1800
G92 E0
G1 X158.740 Y83.260 E4.0852 F1080
G1 X158.740 Y136.740 E6.3264
G1 X61.260 Y136.740 E10.4116
G1 X61.260 Y83.460 E12.6444
G1 X61.260 Y83.260 F1080
G1 X60.756 Y82.756 F4800
G92 E0
G1 X159.244 Y82.756 E4.1274 F1080
G1 X159.244 Y137.244 E6.4109
G1 X60.756 Y137.244 E10.5383
G1 X60.756 Y82.956 E12.8134
G1 X60.756 Y82.756 F1080
; outer perimeter
G1 X60.252 Y82.252 F4800
G92 E0
G1 X159.748 Y82.252 E4.1697 F720
G1 X159.748 Y137.748 E6.4954
G1 X60.252 Y137.748 E10.6650
G1 X60.252 Y82.452 E12.9824
G1 X60.252 Y82.252 F720
; solid layer
G1 X62.184 Y136.312 F4800
G92 E0
G1 X61.688 Y135.816 E0.0294 F1152
G1 X61.688 Y135.103 E0.0593
G1 X62.897 Y136.312 E0.1309
G1 X63.610 Y136.312 E0.1608
G1 X61.688 Y134.390 E0.2746
G1 X61.688 Y133.678 E0.3045
G1 X64.322 Y136.312 E0.4606
G1 X65.035 Y136.312 E0.4905
G1 X61.688 Y132.965 E0.6888
G1 X61.688 Y132.252 E0.7187
G1 X65.748 Y136.312 E0.9593
G1 X66.461 Y136.312 E0.9892
G1 X61.688 Y131.539 E1.2720
G1 X61.688 Y130.826 E1.3019
G1 X67.174 Y136.312 E1.6270
G1 X67.886 Y136.312 E1.6568
G1 X61.688 Y130.114 E2.0242
G1 X61.688 Y129.401 E2.0540
G1 X68.599 Y136.312 E2.4636
G1 X69.312 Y136.312 E2.4935
G1 X61.688 Y128.688 E2.9453
G1 X61.688 Y127.975 E2.9752
G1 X70.025 Y136.312 E3.4692
G1 X70.737 Y136.312 E3.4991
G1 X61.688 Y127.263 E4.0354
G1 X61.688 Y126.550 E4.0653
G1 X71.450 Y136.312 E4.6438
G1 X72.163 Y136.312 E4.6737
G1 X61.688 Y125.837 E5.2945
G1 X61.688 Y125.124 E5.3243
G1 X72.876 Y136.312 E5.9874
G1 X73.588 Y136.312 E6.0172
G1 X61.688 Y124.412 E6.7225
G1 X61.688 Y123.699 E6.7524
G1 X74.301 Y136.312 E7.4999
G1 X75.014 Y136.312 E7.5298
G1 X61.688 Y122.986 E8.3195
G1 X61.688 Y122.273 E8.3494
G1 X75.727 Y136.312 E9.1814
G1 X76.439 Y136.312 E9.2113
G1 X61.688 Y121.561 E10.0855
G1 X61.688 Y120.848 E10.1154
G1 X77.152 Y136.312 E11.0319
G1 X77.865 Y136.312 E11.0617
G1 X61.688 Y120.135 E12.0205
G1 X61.688 Y119.422 E12.0504
G1 X78.578 Y136.312 E13.0513
G1 X79.291 Y136.312 E13.0812
G1 X61.688 Y118.709 E14.1244
G1 X61.688 Y117.997 E14.1543
G1 X80.003 Y136.312 E15.2397
G1 X80.716 Y136.312 E15.2696
G1 X61.688 Y117.284 E16.3973
G1 X61.688 Y116.571 E16.4272
G1 X81.429 Y136.312 E17.5971
G1 X82.142 Y136.312 E17.6270
G1 X61.688 Y115.858 E18.8392
G1 X61.688 Y115.146 E18.8691
G1 X82.854 Y136.312 E20.1235
G1 X83.567 Y136.312 E20.1534
G1 X61.688 Y114.433 E21.4500
G1 X61.688 Y113.720 E21.4799
G1 X84.280 Y136.312 E22.8188
G1 X84.993 Y136.312 E22.8487
G1 X61.688 Y113.007 E24.2299
G1 X61.688 Y112.295 E24.2597
G1 X85.705 Y136.312 E25.6831
G1 X86.418 Y136.312 E25.7130
G1 X61.688 Y111.582 E27.1787
G1 X61.688 Y110.869 E27.2085
G1 X87.131 Y136.312 E28.7164
G1 X87.844 Y136.312 E28.7463
G1 X61.688 Y110.156 E30.2964
G1 X61.688 Y109.444 E30.3263
G1 X88.556 Y136.312 E31.9187
G1 X89.269 Y136.312 E31.9485
G1 X61.688 Y108.731 E33.5832
G1 X61.688 Y108.018 E33.6130
G1 X89.982 Y136.312 E35.2899
G1 X90.695 Y136.312 E35.3198
G1 X61.688 Y107.305 E37.0389
G1 X61.688 Y106.592 E37.0687
G1 X91.408 Y136.312 E38.8301
G1 X92.120 Y136.312 E38.8600
G1 X61.688 Y105.880 E40.6636
G1 X61.688 Y105.167 E40.6934
G1 X92.833 Y136.312 E42.5393
G1 X93.546 Y136.312 E42.5691
G1 X61.688 Y104.454 E44.4572
G1 X61.688 Y103.741 E44.4871
G1 X94.259 Y136.312 E46.4174
G1 X94.971 Y136.312 E46.4473
G1 X61.688 Y103.029 E48.4198
G1 X61.688 Y102.316 E48.4497
G1 X95.684 Y136.312 E50.4645
G1 X96.397 Y136.312 E50.4944
G1 X61.688 Y101.603 E52.5514
G1 X61.688 Y100.890 E52.5813
G1 X97.110 Y136.312 E54.6806
G1 X97.822 Y136.312 E54.7105
G1 X61.688 Y100.178 E56.8520
G1 X61.688 Y99.465 E56.8819
G1 X98.535 Y136.312 E59.0656
G1 X99.248 Y136.312 E59.0955
G1 X61.688 Y98.752 E61.3215
G1 X61.688 Y98.039 E61.3514
G1 X99.961 Y136.312 E63.6197
G1 X100.673 Y136.312 E63.6495
G1 X61.688 Y97.327 E65.9601
G1 X61.688 Y96.614 E65.9899
G1 X101.386 Y136.312 E68.3427
G1 X102.099 Y136.312 E68.3725
G1 X61.688 Y95.901 E70.7675
G1 X61.688 Y95.188 E70.7974
G1 X102.812 Y136.312 E73.2347
G1 X103.524 Y136.312 E73.2645
G1 X61.688 Y94.476 E75.7440
G1 X61.688 Y93.763 E75.7739
G1 X104.237 Y136.312 E78.2956
G1 X104.950 Y136.312 E78.3255
G1 X61.688 Y93.050 E80.8894
G1 X61.688 Y92.337 E80.9193
G1 X105.663 Y136.312 E83.5255
G1 X106.376 Y136.312 E83.5554
G1 X61.688 Y91.624 E86.2038
G1 X61.688 Y90.912 E86.2337
G1 X107.088 Y136.312 E88.9244
G1 X107.801 Y136.312 E88.9543
G1 X61.688 Y90.199 E91.6872
G1 X61.688 Y89.486 E91.7171
G1 X108.514 Y136.312 E94.4923
G1 X109.227 Y136.312 E94.5221
G1 X61.688 Y88.773 E97.3396
G1 X61.688 Y88.061 E97.3694
G1 X109.939 Y136.312 E100.2291
G1 X110.652 Y136.312 E100.2590
G1 X61.688 Y87.348 E103.1609
G1 X61.688 Y86.635 E103.1907
G1 X111.365 Y136.312 E106.1349
G1 X112.078 Y136.312 E106.1648
G1 X61.688 Y85.922 E109.1512
G1 X61.688 Y85.210 E109.1810
G1 X112.790 Y136.312 E112.2097
G1 X113.503 Y136.312 E112.2395
G1 X61.688 Y84.497 E115.3104
G1 X61.688 Y83.784 E115.3403
G1 X114.216 Y136.312 E118.4534
G1 X114.929 Y136.312 E118.4833
G1 X62.306 Y83.688 E121.6021
G1 X63.018 Y83.688 E121.6320
G1 X115.641 Y136.312 E124.7508
G1 X116.354 Y136.312 E124.7806
G1 X63.731 Y83.688 E127.8994
G1 X64.444 Y83.688 E127.9293
G1 X117.067 Y136.312 E131.0481
G1 X117.780 Y136.312 E131.0780
G1 X65.157 Y83.688 E134.1968
G1 X65.869 Y83.688 E134.2266
G1 X118.493 Y136.312 E137.3454
G1 X119.205 Y136.312 E137.3753
G1 X66.582 Y83.688 E140.4941
G1 X67.295 Y83.688 E140.5240
G1 X119.918 Y136.312 E143.6427
G1 X120.631 Y136.312 E143.6726
G1 X68.008 Y83.688 E146.7914
G1 X68.720 Y83.688 E146.8213
G1 X121.344 Y136.312 E149.9401
G1 X122.056 Y136.312 E149.9700
